X:1
T:James Gibb editions
T:Ave Maria - Thermignon
T:#
%%score { 1 | 2 } { 3 | 4 }
L:1/8
Q:1/4=66
M:3/4
K:F
V:1 treble-8 nm="Tenor I" snm="T"
V:2 treble-8 
V:3 bass nm="Bass I" snm="B"
V:4 bass 
V:1
"^Ave Maria""^Delfino Thermignon\n (1861-1944)""^quasi adagio"!ppp! f2 e2 a2 | (g4 f2) | e6 | %3
w: A- ve Ma-|ri\- *|a,|
 e2 d2 c2 | (f4 e2) | d6 |!<(! e2 f2 a2!<)! |[M:3/4][K:treble-8]!>(! (^g4 e2)!>)! | =g6 | %9
w: A- ve Ma-|ri\- *|a,|gra- ti- a|ple\- *|na:|
 a2 g2 f2 | (ec d4) | c6 | (c2 f2) e2 | d4 d2 | d6 | (d2 g2) f2 | (f2 e2) d2 | e6 | f4 g2 | %19
w: Do- mi- nus|te\- * *|cum.|Be\- * ne-|di- cta|tu,|be\- * ne-|di\- * cta|tu,|be- ne-|
 (a2 g2) f2 | e4 g2 | (f2 e2) d2 | (g2 fe) d2 | e6 | c2 f2 e2 | d6 | d6 | (d2 g2) f2 | (f2 e2) d2 | %29
w: di\- * cta|tu in|mu\- * li-|e\- * * ri-|bus:|et be- ne-|di-|ctus|fru\- * ctus|ven\- * tris|
 e4 e2 | f2 f2 g2 | (a2 g2 fe) | d2 e2 f2 | g4 f2 | (f2 e4) | f6 |!<(! c2 c2 c2!<)! |!>(! d6!>)! | %38
w: tu- i.|et be- ne-|di\- * * *|ctus fru- ctus|ven- tris|tu\- *|i.|A- ve Ma-|ri-|
 d6 |!>(! d2 d2 d2!>)! | f6 |!pp! !fermata!f6 |] %42
w: a,|A- ve Ma-|ri\-|a.|
V:2
!ppp! c2 c2 c2 | (c2 =B4) | c6 | c2 =B2 A2 | (A2 =B2 c2- | c2) =B4 |!<(! c2 c2 (cd)!<)! | %7
w: A- ve Ma-|ri\- *|a,|A- ve Ma-|ri\- * *|* a,|gra- ti- a *|
[M:3/4][K:treble-8]!>(! (e4 c2)!>)! | d6 | f2 e2 d2 | (c4 =B2) | G6 | [Ac]4 [Ac]2 | _B4 B2 | B6 | %15
w: ple\- *|na:|Do- mi- nus|te\- *|cum.|Be- ne-|di- cta|tu,|
 [Bd]4 [Bd]2 | [Bc]4 [Bc]2 | [Bc]6 | c4 c2 | (c2 ^c2 d2- | d2) ^c2 c2 | d2 =c2 A2 | c4 =B2 | %23
w: be- ne-|di- cta|tu,|be- ne-|di\- * *|* cta tu|in mu- li-|e- ri-|
 (c4 _B2) | A2 [Ac]2 [Ac]2 | B6 | B6 | [Bd]4 [Bd]2 | [Bc]4 [Bc]2 | [Bc]4 [Bc]2 | c2 c2 c2 | %31
w: bus: *|et be- ne-|di-|ctus|fru- ctus|ven- tris|tu- i.|et be- ne-|
 (c2 ^c2 dc) | d2 d2 d2 | d4 A2 | (c2- cB/A/ G2) | A6 |!<(! A2 A2 A2!<)! |!>(! A6!>)! | A6 | %39
w: di\- * * *|ctus fru- ctus|ven- tris|tu\- * * * *|i.|A- ve Ma-|ri-|a,|
!>(! B2 B2 B2!>)! | A6 |!pp! !fermata!A6 |] %42
w: A- ve Ma-|ri\-|a.|
V:3
!ppp! A,2 G,2 F,2 | G,6 | G,6 | G,2 G,2 E,2 | (D,4 G,2) | G,6 |!<(! G,2 A,2 A,2!<)! | %7
w: A- ve Ma-|ri-|a,|A- ve Ma-|ri\- *|a,|gra- ti- a|
[M:3/4]!>(! (=B,4 C2)!>)! | =B,6 | C2 C2 A,2 | (G,2 A,2 G,2) | E,6 | F,4 F,2 | G,4 G,2 | G,6 | %15
w: ple\- *|na:|Do- mi- nus|te\- * *|cum.|Be- ne-|di- cta|tu,|
 G,4 G,2 | G,4 G,2 | G,6 | A,4 G,2 | (F,2 G,2) A,2 | A,6 | A,2 G,2 F,2 | G,4 G,2 | G,6 | %24
w: be- ne-|di- cta|tu,|be- ne-|di\- * cta|tu|in mu- li-|e- ri-|bus:|
 F,2 F,2 F,2 | G,6 | G,6 | G,4 G,2 | G,4 G,2 | G,4 G,2 | A,2 A,2 G,2 | (F,2 G,2 A,G,) | %32
w: et be- ne-|di-|ctus|fru- ctus|ven- tris|tu- i.|et be- ne-|di\- * * *|
 F,2 B,2 A,2 | B,4 F,2 | G,6 | F,6 |!<(! F,2 F,2 F,2!<)! |!>(! F,6!>)! | F,6 | %39
w: ctus fru- ctus|ven- tris|tu-|i.|A- ve Ma-|ri-|a,|
!>(! F,2 F,2 F,2!>)! | F,6 |!pp! !fermata!F,6 |] %42
w: A- ve Ma-|ri\-|a.|
V:4
!ppp! F,2 C,2 F,2 | (E,2 D,4) | C,6 | C,2 G,,2 A,,2 | (D,4 C,2) | G,,6 |!<(! C,2 F,2 F,2!<)! | %7
w: A- ve Ma-|ri\- *|a,|A- ve Ma-|ri\- *|a,|gra- ti- a|
[M:3/4]!>(! (E,4 A,2)!>)! | G,6 | F,2 C,2 D,2 | (E,2 F,2 G,2) | C,6 | F,4 F,2 | F,4 F,2 | F,6 | %15
w: ple\- *|na:|Do- mi- nus|te\- * *|cum.|Be- ne-|di- cta|tu,|
 F,4 F,2 | F,4 F,2 | F,6 | F,4 E,2 | (F,2 E,2) D,2 | A,,6 | D,2 E,2 F,2 | E,4 G,2 | C,6 | %24
w: be- ne-|di- cta|tu,|be- ne-|di\- * cta|tu|in mu- li-|e- ri-|bus:|
 F,2 F,2 F,2 | F,6 | F,6 | F,4 F,2 | F,4 F,2 | F,4 F,2 | F,2 F,2 E,2 | (F,2 E,2 D,A,,) | %32
w: et be- ne-|di-|ctus|fru- ctus|ven- tris|tu- i.|et be- ne-|di\- * * *|
 B,,2 B,,2 D,2 | G,,4 D,2 | C,6 | F,,6 |!<(! F,2 F,2 F,2!<)! |!>(! D,6!>)! | D,6 | %39
w: ctus fru- ctus|ven- tris|tu-|i.|A- ve Ma-|ri-|a,|
!>(! B,,2 B,,2 B,,2!>)! | F,,6 |!pp! !fermata!F,,6 |] %42
w: A- ve Ma-|ri\-|a.|

